packages/kaspersky-hexa-ui-icons/src/iconsSVGs/16/Facebook.svg

<svg width="16" height="16" viewBox="0 0 16 16" fill="none" xmlns="http://www.w3.org/2000/svg">
<path d="M8 1C4.13409 1 1 4.1502 1 8.03598C1 11.5636 3.58523 14.4761 6.95382 14.985V9.90083H5.22195V8.05133H6.95382V6.82067C6.95382 4.78312 7.94145 3.88859 9.62623 3.88859C10.4331 3.88859 10.8598 3.94871 11.0619 3.97622V5.59066H9.91259C9.19732 5.59066 8.94755 6.27219 8.94755 7.04039V8.05133H11.0437L10.7593 9.90083H8.94755V15C12.3642 14.534 15 11.5978 15 8.03598C15 4.1502 11.8659 1 8 1Z" fill="black"/>
</svg>

<svg xmlns="http://www.w3.org/2000/svg" width="16" height="16" fill="none" viewBox="0 0 16 16"><path fill="#000" d="M8 1C4.134 1 1 4.1502 1 8.036c0 3.5276 2.5852 6.4401 5.9538 6.949V9.9008H5.222V8.0513h1.732V6.8207c0-2.0376.9875-2.9321 2.6723-2.9321.8069 0 1.2336.0601 1.4357.0876v1.6145H9.9126c-.7153 0-.965.6815-.965 1.4497v1.011h2.0961l-.2844 1.8494H8.9476V15C12.3641 14.534 15 11.5978 15 8.036 15 4.1502 11.8659 1 8 1"/></svg>
